!!!OTL: Ei du lieber Augustin.
!!!OTL-incipit:EI DU LIEBER AUGUSTIN
!!!COM: Volksweise
!!!ARE: Europa, Mitteleuropa, Deutschland
!!!SCT: F0181
!!!TXL: @@DE
!!!YEM: Copyright 1995, estate of Helmut Schaffrath.
**kern	**text
*ICvox	*
*clefG2	*
*M3/4	*
*k[f#]	*
*G:	*
=1	=1
!LO:TX:a:t=Munter. Wie ein mäßiger Walʒer.	!
{4.dd	Ei,
8ee	du
8dd	lieber
8cc	.
=2	=2
4b	Auguſtin,
4g	.
4g}	.
=3	=3
{(8dq	.
4a^)	'sGeld
4d	iſt
4d	weg,
=4	=4
8dq	.
4b^	sMäd'l
4g	iſt
4g}	hin!
=5	=5
{4.dd	ei,
8ee	du
8dd	lieber
8cc	.
=6	=6
4b	Auguſtin,
4g	.
4g}	.
=7	=7
{4a	Alles
4d	.
4d	iſt
=8	=8
4g	hin!
4r	.
4r}	.
=9	=9
{4.dd	Ei,
8ee	du
8dd	lieber
8cc	.
=10	=10
4b	Auguſtin,
4g	.
4g}	.
=11	=11
{(8dq	.
4a^)	'sGeld
4d	iſt
4d	weg,
=12	=12
8dq	.
4b^	sMäd'l
4g	iſt
4g}	hin!
=13	=13
{4.dd	ei,
8ee	du
8dd	lieber
8cc	.
=14	=14
4b	Auguſtin,
4g	.
4g}	.
=15	=15
{4a	Alles
4d	.
4d	iſt
=16	=16
4g	hin!
4r	.
4r}	.
=17	=17
{8dq	.
4a	Geld
4d	iſt
4d	weg,
=18	=18
8dq	's
8g	Mädel
8b/	.
8ddL	iſt
8bJ	.
4g}	hin,
=19	=19
{4.a	ei
8d	du
8d	lieber
8d	.
=20	=20
8gL	Au-
8bJ	.
8dd/L	-gu-
8bJ	.
4g}	-ſtin!
=21	=21
{4.dd	Ei
8ee	du
8dd	lieber
8cc	.
=22	=22
4b	Auguſtin,
4g	.
4g}	.
=23	=23
{4a	Alles
4d	.
4d	iſt
=24	=24
4g	hin!
4r	.
4r}	.
=25	=25
{8dq	.
4a	Geld
4d	iſt
4d	weg,
=26	=26
8dq	's
8g	Mädel
8b/	.
8ddL	iſt
8bJ	.
4g}	hin,
=27	=27
{4.a	ei
8d	du
8d	lieber
8d	.
=28	=28
8gL	Au-
8bJ	.
8dd/L	-gu-
8bJ	.
4g}	-ſtin!
=29	=29
{4.dd	Ei
8ee	du
8dd	lieber
8cc	.
=30	=30
4b	Auguſtin,
4g	.
4g}	.
=31	=31
{4a	Alles
4d	.
4d	iſt
=32	=32
4g	hin!
4r	.
4r}	.
==	==
!!!AGN: Scherz - Lied, Tanz - Reim
!!!ONB: ESAC (Essen Associative Code) Database: FINK
!!!AMT: simple triple
!!!AIN: vox
!!!EED: Helmut Schaffrath
!!!EEV: 1.0
!!!GTL:Volkslieder
!!Text: Volkslied
!!!source: Musikalischer Hausschatz der Deutschen. Eine Sammlung von über 1000 Liedern und Gesängen mit Singstimmen und Klavierbegleitung. Leipzig, Litterarisches Verlags-Haus.
!!!page: 105
!!!URL-scan: https://www.digitale-sammlungen.de/en/view/bsb11144622?page=112,113
!!!ENC: Anna Maria Matuszewska
!!!EEV: 2024/26/07
*-	*-